X: 021291
T: Bill the Weaver's #2
S: "Johnny O'Leary of Sliabh Luachra" (#269)
Z: B.Black
L: 1/8
M: 2/4
Q: 270
R: polka
K: D
a>f df|A/B/c/d/ e2|e>d ed|cA BA|
a>f df|A/B/c/d/ e>f|g/f/e/d/ cA|Bc d2 :|
f/d/B/d/ fd|dB fe/d/|c/B/A/F/ eA|c/B/A/B/ ce|
fb ba|fb ba|f>g fe|dA B2 :|
